src/assets/svg/4-news/3-save.svg

<svg width="23" height="27" viewBox="0 0 23 27" fill="none" xmlns="http://www.w3.org/2000/svg">
<path d="M4.79199 23.625V4.92188C4.79199 4.47187 4.93574 4.07813 5.22324 3.74063C5.51074 3.40313 5.84616 3.23438 6.22949 3.23438H16.7712C17.1545 3.23438 17.4899 3.40313 17.7774 3.74063C18.0649 4.07813 18.2087 4.47187 18.2087 4.92188V23.625L11.5003 20.25L4.79199 23.625ZM6.22949 21.0656L11.5003 18.45L16.7712 21.0656V4.92188H6.22949V21.0656ZM6.22949 4.92188H16.7712H11.5003H6.22949Z" fill="#E9E8E8" fill-opacity="0.8"/>
</svg>

<svg width="23" height="27" fill="none" xmlns="http://www.w3.org/2000/svg"><path d="M4.792 23.625V4.922c0-.45.144-.844.431-1.181.288-.338.623-.507 1.006-.507h10.542c.383 0 .719.17 1.006.507.288.337.432.73.432 1.18v18.704L11.5 20.25l-6.708 3.375Zm1.437-2.56L11.5 18.45l5.271 2.616V4.922H6.23v16.144Zm0-16.143h10.542H6.23Z" fill="#E9E8E8" fill-opacity=".8"/></svg>
